gyh_app/assets/trinckets/coin.svg

<svg width="76" height="76" viewBox="0 0 76 76" fill="none" xmlns="http://www.w3.org/2000/svg">
<g filter="url(#filter0_d_4938_210)">
<path d="M35 3C52.6731 3 67 17.3269 67 35C67 52.6731 52.6731 67 35 67C17.3269 67 3 52.6731 3 35C3 17.3269 17.3269 3 35 3Z" fill="#FFCD4E" stroke="#FFA200" stroke-width="6"/>
<path d="M34.9 13.3661C35.4632 13.3661 36.0388 13.5216 36.4967 13.8798C36.9745 14.2537 37.2789 14.819 37.2789 15.4863V16.6962C41.7977 17.32 45.1412 20.0416 46.3815 23.8222L46.5026 24.2158L46.5133 24.2538L46.5211 24.2929C46.5606 24.4902 46.6266 24.8043 46.6266 25.1357C46.6265 25.8227 46.3767 26.416 45.944 26.8671C45.5289 27.2997 44.9912 27.5563 44.4596 27.6962L44.4147 27.7079L44.3698 27.7158C44.1492 27.7525 43.834 27.8154 43.4723 27.8154C42.9445 27.8153 42.3736 27.6986 41.8746 27.372C41.361 27.0357 40.994 26.5212 40.8268 25.8661V25.8671C40.521 24.7205 40.004 23.8196 39.277 23.1747C38.7626 22.7186 38.1087 22.3605 37.2789 22.1435V31.5751C40.0349 32.2162 42.5409 33.0347 44.402 34.4931C46.5192 36.1523 47.7037 38.5509 47.7037 42.0644C47.7037 45.5186 46.3499 48.1542 44.194 49.9286C42.3022 51.4855 39.8503 52.3328 37.2789 52.5663V54.5566C37.2789 56.0295 35.9205 56.6767 34.9 56.6767C34.3369 56.6766 33.7621 56.5212 33.3043 56.163C32.8266 55.7891 32.5221 55.2238 32.5221 54.5566V52.5634C29.83 52.3144 27.5933 51.446 25.8658 50.0673C23.9344 48.5258 22.703 46.3993 22.1637 43.9609L22.1656 43.9599C22.0947 43.6591 22.0973 43.3768 22.0973 43.2275C22.0973 42.4541 22.3796 41.792 22.8629 41.2997C23.323 40.8312 23.9194 40.5622 24.5153 40.4433C24.8174 40.3715 25.1017 40.3749 25.2516 40.3749C25.8764 40.375 26.5028 40.5404 27.027 40.9247C27.5577 41.3139 27.9192 41.8816 28.0768 42.5663L28.2203 43.1181C28.5759 44.3519 29.0708 45.2257 29.7672 45.8476C30.3942 46.4075 31.2617 46.8291 32.5221 47.0722V36.539C29.7081 35.8956 27.3683 34.9277 25.6852 33.4316C23.7992 31.755 22.8297 29.4991 22.8297 26.5995C22.8298 23.4453 24.076 20.9886 26.0758 19.2988C27.8252 17.8207 30.1021 16.9693 32.5221 16.6826V15.4863C32.5221 14.8441 32.7956 14.2741 33.2799 13.8867C33.7421 13.5171 34.3255 13.3662 34.9 13.3661ZM37.2789 47.1025C38.7109 46.8652 39.7569 46.3755 40.4703 45.7109C41.3303 44.9097 41.8268 43.7435 41.8268 42.1074C41.8267 40.241 41.239 39.3089 40.3746 38.6874C39.6179 38.1435 38.5928 37.7908 37.2789 37.4443V47.1025ZM32.5221 22.0976C31.3615 22.3322 30.4654 22.8001 29.8317 23.4003C29.0237 24.1655 28.5778 25.2016 28.5778 26.4277C28.5778 27.684 28.8662 28.5286 29.524 29.1786C30.0896 29.7375 31.0142 30.2389 32.5221 30.6425V22.0976Z" fill="#FFD49F" stroke="#FFA200" stroke-width="2"/>
</g>
<defs>
<filter id="filter0_d_4938_210" x="0" y="0" width="76" height="76" filterUnits="userSpaceOnUse" color-interpolation-filters="sRGB">
<feFlood flood-opacity="0" result="BackgroundImageFix"/>
<feColorMatrix in="SourceAlpha" type="matrix" values="0 0 0 0 0 0 0 0 0 0 0 0 0 0 0 0 0 0 127 0" result="hardAlpha"/>
<feOffset dx="6" dy="6"/>
<feComposite in2="hardAlpha" operator="out"/>
<feColorMatrix type="matrix" values="0 0 0 0 0 0 0 0 0 0 0 0 0 0 0 0 0 0 0.25 0"/>
<feBlend mode="normal" in2="BackgroundImageFix" result="effect1_dropShadow_4938_210"/>
<feBlend mode="normal" in="SourceGraphic" in2="effect1_dropShadow_4938_210" result="shape"/>
</filter>
</defs>
</svg>

<svg xmlns="http://www.w3.org/2000/svg" width="76" height="76" fill="none" viewBox="0 0 76 76"><g stroke="#ffa200" filter="url(#a)"><path fill="#ffcd4e" stroke-width="6" d="M35 3c17.673 0 32 14.327 32 32S52.673 67 35 67 3 52.673 3 35 17.327 3 35 3Z"/><path fill="#ffd49f" stroke-width="2" d="M34.9 13.366c.563 0 1.139.156 1.597.514.477.374.782.939.782 1.606v1.21c4.519.624 7.862 3.346 9.103 7.126l.12.394.011.038.008.039c.04.197.106.511.106.843 0 .687-.25 1.28-.683 1.731-.415.433-.953.69-1.484.83l-.045.01-.045.009c-.22.037-.536.1-.898.1-.528 0-1.098-.117-1.597-.444-.514-.336-.881-.85-1.048-1.506v.001c-.306-1.146-.823-2.047-1.55-2.692-.514-.456-1.168-.815-1.998-1.032v9.432c2.756.641 5.262 1.46 7.123 2.918 2.117 1.66 3.302 4.058 3.302 7.571 0 3.455-1.354 6.09-3.51 7.865-1.892 1.556-4.344 2.404-6.915 2.637v1.99c0 1.474-1.359 2.12-2.379 2.12-.563 0-1.138-.155-1.596-.513a2.01 2.01 0 0 1-.782-1.606v-1.994c-2.692-.249-4.929-1.117-6.656-2.496-1.932-1.541-3.163-3.668-3.702-6.106l.002-.001c-.071-.3-.069-.583-.069-.733 0-.773.283-1.435.766-1.927.46-.469 1.056-.738 1.652-.857.302-.072.587-.068.737-.068.624 0 1.25.165 1.775.55.53.389.892.957 1.05 1.641l.143.552c.356 1.234.85 2.108 1.547 2.73.627.56 1.495.981 2.755 1.224V36.54c-2.814-.643-5.154-1.611-6.837-3.107-1.886-1.677-2.855-3.933-2.855-6.833 0-3.154 1.246-5.61 3.246-7.3 1.75-1.478 4.026-2.33 6.446-2.616v-1.197c0-.642.274-1.212.758-1.6.462-.369 1.045-.52 1.62-.52Zm2.379 33.737c1.432-.238 2.478-.727 3.191-1.392.86-.801 1.357-1.968 1.357-3.604 0-1.866-.588-2.798-1.452-3.42-.757-.543-1.782-.896-3.096-1.243zm-4.757-25.005c-1.16.234-2.057.702-2.69 1.302-.808.766-1.254 1.802-1.254 3.028 0 1.256.288 2.1.946 2.75.566.56 1.49 1.06 2.998 1.464z"/></g><defs><filter id="a" width="76" height="76" x="0" y="0" color-interpolation-filters="sRGB" filterUnits="userSpaceOnUse"><feFlood flood-opacity="0" result="BackgroundImageFix"/><feColorMatrix in="SourceAlpha" result="hardAlpha" values="0 0 0 0 0 0 0 0 0 0 0 0 0 0 0 0 0 0 127 0"/><feOffset dx="6" dy="6"/><feComposite in2="hardAlpha" operator="out"/><feColorMatrix values="0 0 0 0 0 0 0 0 0 0 0 0 0 0 0 0 0 0 0.25 0"/><feBlend in2="BackgroundImageFix" result="effect1_dropShadow_4938_210"/><feBlend in="SourceGraphic" in2="effect1_dropShadow_4938_210" result="shape"/></filter></defs></svg>
